src/assets/icons/delivery.svg

<svg width="33" height="32" viewBox="0 0 33 32" fill="none" xmlns="http://www.w3.org/2000/svg">
<path d="M7.16667 10.6667V25.3333H25.8333V10.6667H21.8333V21.3333L16.5 18.6667L11.1667 21.3333V10.6667H7.16667ZM7.16667 28C6.43333 28 5.80556 27.7389 5.28333 27.2167C4.76111 26.6944 4.5 26.0667 4.5 25.3333V8.7C4.5 8.38889 4.55 8.08889 4.65 7.8C4.75 7.51111 4.9 7.24444 5.1 7L6.76667 4.96667C7.01111 4.65556 7.31667 4.41667 7.68333 4.25C8.05 4.08333 8.43333 4 8.83333 4H24.1667C24.5667 4 24.95 4.08333 25.3167 4.25C25.6833 4.41667 25.9889 4.65556 26.2333 4.96667L27.9 7C28.1 7.24444 28.25 7.51111 28.35 7.8C28.45 8.08889 28.5 8.38889 28.5 8.7V25.3333C28.5 26.0667 28.2389 26.6944 27.7167 27.2167C27.1944 27.7389 26.5667 28 25.8333 28H7.16667ZM7.7 8H25.3L24.1667 6.66667H8.83333L7.7 8ZM13.8333 10.6667V17L16.5 15.6667L19.1667 17V10.6667H13.8333Z" fill="#F5F5F5"/>
</svg>

<svg width="33" height="32" fill="none" xmlns="http://www.w3.org/2000/svg"><path d="M7.167 10.667v14.666h18.666V10.667h-4v10.666L16.5 18.667l-5.333 2.666V10.667zm0 17.333a2.57 2.57 0 0 1-1.884-.783 2.57 2.57 0 0 1-.783-1.884V8.7q0-.466.15-.9T5.1 7l1.667-2.033q.366-.467.916-.717T8.833 4h15.334q.6 0 1.15.25t.916.717L27.9 7q.3.366.45.8.15.433.15.9v16.633q0 1.1-.783 1.884a2.57 2.57 0 0 1-1.884.783zM7.7 8h17.6l-1.133-1.333H8.833zm6.133 2.667V17l2.667-1.333L19.167 17v-6.333z" fill="#F5F5F5"/></svg>
